; generated by Slic3r 1.2.9 on 2016-08-06 at 17:17:07

; external perimeters extrusion width = 0.40mm
; perimeters extrusion width = 0.68mm
; infill extrusion width = 1.28mm
; solid infill extrusion width = 0.68mm
; top infill extrusion width = 0.68mm

M107
M104 S215 ; set temperature
G28 ; home all axes
G1 Z5 F5000 ; lift nozzle

M109 S215 ; wait for temperature to be reached
G21 ; set units to millimeters
G90 ; use absolute coordinates
M82 ; use absolute distances for extrusion
G92 E0
G1 Z0.350 F7800.000
G1 X59.668 Y85.702 F7800.000
G1 X61.820 Y84.909 E0.20854 F1800.000
G1 X63.000 Y84.803 E0.31625
G1 X157.000 Y84.803 E8.86363
G1 X159.259 Y85.200 E9.07217
G1 X161.247 Y86.344 E9.28072 F1800.000
G1 X162.726 Y88.096 E9.48926
G1 X163.519 Y90.248 E9.69780
G1 X163.625 Y91.428 E9.80551
G1 X163.625 Y178.525 E17.72518
G1 X163.228 Y180.784 E17.93372
G1 X162.085 Y182.772 E18.14226
G1 X160.332 Y184.251 E18.35080
G1 X158.180 Y185.044 E18.55935
G1 X157.000 Y185.150 E18.66706
G1 X63.000 Y185.150 E27.21444
G1 X60.741 Y184.753 E27.42298
G1 X58.753 Y183.609 E27.63152
G1 X57.274 Y181.857 E27.84006
G1 X56.481 Y179.705 E28.04861
G1 X56.375 Y178.525 E28.15631
G1 X56.375 Y91.428 E36.07598
G1 X56.772 Y89.169 E36.28452
G1 X57.915 Y87.181 E36.49307
G1 X59.622 Y85.741 E36.69615
G1 E33.19615 F2400.00000
G92 E0
G1 X155.400 Y176.925 F7800.000
G1 E3.50000 F2400.00000
G1 X64.600 Y176.925 E11.75645 F1800.000
G1 X64.600 Y93.028 E19.38518
G1 X155.400 Y93.028 E27.64163
G1 X155.400 Y176.865 E35.26490
G1 X156.025 Y177.550 F7800.000
G1 X63.975 Y177.550 E43.63499 F1800.000
G1 X63.975 Y92.403 E51.37737
G1 X156.025 Y92.403 E59.74745
G1 X156.025 Y177.490 E67.48437
G1 X156.650 Y178.175 F7800.000
G1 X63.350 Y178.175 E75.96810 F1800.000
G1 X63.350 Y91.778 E83.82412
G1 X156.650 Y91.778 E92.30785
G1 X156.650 Y178.115 E100.15841
G1 X156.304 Y177.975 F7800.000
G1 X155.022 Y93.712 F7800.000
G1 X154.717 Y93.407 E100.19770 F1800.000
G1 X153.832 Y93.407 E100.27829
G1 X155.022 Y94.597 E100.43155
G1 X155.022 Y95.482 E100.51213
G1 X152.947 Y93.407 E100.77936
G1 X152.062 Y93.407 E100.85995
G1 X155.022 Y96.367 E101.24114
G1 X155.022 Y97.252 E101.32173
G1 X151.177 Y93.407 E101.81689
G1 X150.292 Y93.407 E101.89748
G1 X155.022 Y98.137 E102.50660
G1 X155.022 Y99.022 E102.58719
G1 X149.407 Y93.407 E103.31029
G1 X148.522 Y93.407 E103.39087
G1 X155.022 Y99.907 E104.22793
G1 X155.022 Y100.792 E104.30852
G1 X147.637 Y93.407 E105.25955
G1 X146.752 Y93.407 E105.34014
G1 X155.022 Y101.677 E106.40513
G1 X155.022 Y102.562 E106.48572
G1 X145.867 Y93.407 E107.66468
G1 X144.982 Y93.407 E107.74527
G1 X155.022 Y103.447 E109.03820
G1 X155.022 Y104.332 E109.11879
G1 X144.097 Y93.407 E110.52568
G1 X143.212 Y93.407 E110.60627
G1 X155.022 Y105.217 E112.12713
G1 X155.022 Y106.102 E112.20772
G1 X142.327 Y93.407 E113.84255
G1 X141.442 Y93.407 E113.92314
G1 X155.022 Y106.987 E115.67194
G1 X155.022 Y107.872 E115.75252
G1 X140.557 Y93.407 E117.61529
G1 X139.672 Y93.407 E117.69588
G1 X155.022 Y108.757 E119.67261
G1 X155.022 Y109.641 E119.75320
G1 X138.787 Y93.407 E121.84390
G1 X137.902 Y93.407 E121.92448
G1 X155.022 Y110.526 E124.12915
G1 X155.022 Y111.411 E124.20974
G1 X137.017 Y93.407 E126.52837
G1 X136.132 Y93.407 E126.60896
G1 X155.022 Y112.296 E129.04156
G1 X155.022 Y113.181 E129.12214
G1 X135.247 Y93.407 E131.66871
G1 X134.362 Y93.407 E131.74930
G1 X155.022 Y114.066 E134.40983
G1 X155.022 Y114.951 E134.49042
G1 X133.477 Y93.407 E137.26492
G1 X132.592 Y93.407 E137.34551
G1 X155.022 Y115.836 E140.23398
G1 X155.022 Y116.721 E140.31456
G1 X131.707 Y93.407 E143.31700
G1 X130.822 Y93.407 E143.39759
G1 X155.022 Y117.606 E146.51399
G1 X155.022 Y118.491 E146.59458
G1 X129.937 Y93.407 E149.82495
G1 X129.052 Y93.407 E149.90553
G1 X155.022 Y119.376 E153.24987
G1 X155.022 Y120.261 E153.33046
G1 X128.167 Y93.407 E156.78876
G1 X127.282 Y93.407 E156.86935
G1 X155.022 Y121.146 E160.44162
G1 X155.022 Y122.031 E160.52221
G1 X126.397 Y93.407 E164.20845
G1 X125.512 Y93.407 E164.28903
G1 X155.022 Y122.916 E168.08924
G1 X155.022 Y123.801 E168.16983
G1 X124.627 Y93.407 E172.08400
G1 X123.742 Y93.407 E172.16458
G1 X155.022 Y124.686 E176.19272
G1 X155.022 Y125.571 E176.27331
G1 X122.857 Y93.407 E180.41542
G1 X121.972 Y93.407 E180.49600
G1 X155.022 Y126.456 E184.75208
G1 X155.022 Y127.341 E184.83267
G1 X121.087 Y93.407 E189.20271
G1 X120.202 Y93.407 E189.28329
G1 X155.022 Y128.226 E193.76730
G1 X155.022 Y129.111 E193.84789
G1 X119.317 Y93.407 E198.44586
G1 X118.432 Y93.407 E198.52645
G1 X155.022 Y129.996 E203.23839
G1 X155.022 Y130.881 E203.31898
G1 X117.547 Y93.407 E208.14489
G1 X116.662 Y93.407 E208.22547
G1 X155.022 Y131.766 E213.16535
G1 X155.022 Y132.651 E213.24594
G1 X115.777 Y93.407 E218.29978
G1 X114.892 Y93.407 E218.38037
G1 X155.022 Y133.536 E223.54818
G1 X155.022 Y134.421 E223.62876
G1 X114.007 Y93.407 E228.91054
G1 X113.122 Y93.407 E228.99113
G1 X155.022 Y135.306 E234.38687
G1 X155.022 Y136.191 E234.46746
G1 X112.237 Y93.407 E239.97717
G1 X111.352 Y93.407 E240.05776
G1 X155.022 Y137.076 E245.68144
G1 X155.022 Y137.961 E245.76202
G1 X110.467 Y93.407 E251.49967
G1 X109.582 Y93.407 E251.58025
G1 X155.022 Y138.846 E257.43187
G1 X155.022 Y139.731 E257.51245
G1 X108.697 Y93.407 E263.47803
G1 X107.812 Y93.407 E263.55862
G1 X155.022 Y140.616 E269.63817
G1 X155.022 Y141.501 E269.71875
G1 X106.927 Y93.407 E275.91227
G1 X106.042 Y93.407 E275.99285
G1 X155.022 Y142.386 E282.30033
G1 X155.022 Y143.271 E282.38092
G1 X105.157 Y93.407 E288.80237
G1 X104.272 Y93.407 E288.88296
G1 X155.022 Y144.156 E295.41837
G1 X155.022 Y145.041 E295.49896
G1 X103.387 Y93.407 E302.14834
G1 X102.502 Y93.407 E302.22893
G1 X155.022 Y145.926 E308.99227
G1 X155.022 Y146.811 E309.07286
G1 X101.617 Y93.407 E315.95018
G1 X100.732 Y93.407 E316.03076
G1 X155.022 Y147.696 E323.02205
G1 X155.022 Y148.581 E323.10263
G1 X99.847 Y93.407 E330.20788
G1 X98.962 Y93.407 E330.28847
G1 X155.022 Y149.466 E337.50769
G1 X155.022 Y150.351 E337.58827
G1 X98.077 Y93.407 E344.92146
G1 X97.192 Y93.407 E345.00205
G1 X155.022 Y151.236 E352.44920
G1 X155.022 Y152.121 E352.52978
G1 X96.307 Y93.407 E360.09090
G1 X95.422 Y93.407 E360.17149
G1 X155.022 Y153.006 E367.84657
G1 X155.022 Y153.891 E367.92716
G1 X94.537 Y93.407 E375.71621
G1 X93.652 Y93.407 E375.79680
G1 X155.022 Y154.776 E383.69982
G1 X155.022 Y155.661 E383.78041
G1 X92.767 Y93.407 E391.79739
G1 X91.882 Y93.407 E391.87798
G1 X155.022 Y156.546 E400.00893
G1 X155.022 Y157.431 E400.08952
G1 X90.997 Y93.407 E408.33444
G1 X90.112 Y93.407 E408.41503
G1 X155.022 Y158.316 E416.77392
G1 X155.022 Y159.201 E416.85450
G1 X89.227 Y93.407 E425.32736
G1 X88.342 Y93.407 E425.40794
G1 X155.022 Y160.086 E433.99477
G1 X155.022 Y160.971 E434.07535
G1 X87.457 Y93.407 E442.77614
G1 X86.572 Y93.407 E442.85673
G1 X155.022 Y161.856 E451.67148
G1 X155.022 Y162.741 E451.75207
G1 X85.687 Y93.407 E460.68079
G1 X84.802 Y93.407 E460.76138
G1 X155.022 Y163.626 E469.80407
G1 X155.022 Y164.511 E469.88466
G1 X83.917 Y93.407 E479.04131
G1 X83.032 Y93.407 E479.12190
G1 X155.022 Y165.396 E488.39253
G1 X155.022 Y166.281 E488.47311
G1 X82.147 Y93.407 E497.85770
G1 X81.262 Y93.407 E497.93829
G1 X155.022 Y167.166 E507.43685
G1 X155.022 Y168.051 E507.51744
G1 X80.377 Y93.407 E517.12996
G1 X79.492 Y93.407 E517.21055
G1 X155.022 Y168.936 E526.93704
G1 X155.022 Y169.821 E527.01763
G1 X78.607 Y93.407 E536.85809
G1 X77.722 Y93.407 E536.93867
G1 X155.022 Y170.706 E546.89310
G1 X155.022 Y171.591 E546.97369
G1 X76.837 Y93.407 E557.04208
G1 X75.952 Y93.407 E557.12267
G1 X155.022 Y172.476 E567.30503
G1 X155.022 Y173.361 E567.38562
G1 X75.067 Y93.407 E577.68194
G1 X74.182 Y93.407 E577.76253
G1 X155.022 Y174.246 E588.17282
G1 X155.022 Y175.131 E588.25341
G1 X73.297 Y93.407 E598.77767
G1 X72.412 Y93.407 E598.85826
G1 X155.022 Y176.016 E609.49649
G1 X154.667 Y176.547 E609.55460
G1 X71.527 Y93.407 E620.26117
G1 X70.642 Y93.407 E620.34176
G1 X153.782 Y176.547 E631.04834
G1 X152.897 Y176.547 E631.12893
G1 X69.757 Y93.407 E641.83551
G1 X68.872 Y93.407 E641.91609
G1 X152.012 Y176.547 E652.62267
G1 X151.127 Y176.547 E652.70326
G1 X67.987 Y93.407 E663.40984
G1 X67.102 Y93.407 E663.49043
G1 X150.242 Y176.547 E674.19700
G1 X149.357 Y176.547 E674.27759
G1 X66.217 Y93.407 E684.98417
G1 X65.332 Y93.407 E685.06476
G1 X148.472 Y176.547 E695.77134
G1 X147.587 Y176.547 E695.85192
G1 X64.978 Y93.937 E706.49014
G1 X64.978 Y94.822 E706.57073
G1 X146.702 Y176.547 E717.09497
G1 X145.818 Y176.547 E717.17556
G1 X64.978 Y95.707 E727.58584
G1 X64.978 Y96.592 E727.66643
G1 X144.933 Y176.547 E737.96274
G1 X144.048 Y176.547 E738.04333
G1 X64.978 Y97.477 E748.22568
G1 X64.978 Y98.362 E748.30626
G1 X143.163 Y176.547 E758.37464
G1 X142.278 Y176.547 E758.45523
G1 X64.978 Y99.247 E768.40964
G1 X64.978 Y100.132 E768.49023
G1 X141.393 Y176.547 E778.33068
G1 X140.508 Y176.547 E778.41126
G1 X64.978 Y101.017 E788.13774
G1 X64.978 Y101.902 E788.21833
G1 X139.623 Y176.547 E797.83084
G1 X138.738 Y176.547 E797.91143
G1 X64.978 Y102.787 E807.40997
G1 X64.978 Y103.672 E807.49056
G1 X137.853 Y176.547 E816.87514
G1 X136.968 Y176.547 E816.95572
G1 X64.978 Y104.557 E826.22634
G1 X64.978 Y105.442 E826.30692
G1 X136.083 Y176.547 E835.46357
G1 X135.198 Y176.547 E835.54415
G1 X64.978 Y106.327 E844.58683
G1 X64.978 Y107.212 E844.66742
G1 X134.313 Y176.547 E853.59613
G1 X133.428 Y176.547 E853.67671
G1 X64.978 Y108.097 E862.49145
G1 X64.978 Y108.982 E862.57204
G1 X132.543 Y176.547 E871.27282
G1 X131.658 Y176.547 E871.35340
G1 X64.978 Y109.867 E879.94021
G1 X64.978 Y110.752 E880.02080
G1 X130.773 Y176.547 E888.49364
G1 X129.888 Y176.547 E888.57423
G1 X64.978 Y111.637 E896.93310
G1 X64.978 Y112.522 E897.01369
G1 X129.003 Y176.547 E905.25859
G1 X128.118 Y176.547 E905.33918
G1 X64.978 Y113.407 E913.47012
G1 X64.978 Y114.292 E913.55071
G1 X127.233 Y176.547 E921.56768
G1 X126.348 Y176.547 E921.64827
G1 X64.978 Y115.177 E929.55127
G1 X64.978 Y116.062 E929.63186
G1 X125.463 Y176.547 E937.42090
G1 X124.578 Y176.547 E937.50149
G1 X64.978 Y116.947 E945.17656
G1 X64.978 Y117.832 E945.25715
G1 X123.693 Y176.547 E952.81825
G1 X122.808 Y176.547 E952.89884
G1 X64.978 Y118.717 E960.34597
G1 X64.978 Y119.602 E960.42656
G1 X121.923 Y176.547 E967.75973
G1 X121.038 Y176.547 E967.84032
G1 X64.978 Y120.487 E975.05952
G1 X64.978 Y121.372 E975.14011
G1 X120.153 Y176.547 E982.24535
G1 X119.268 Y176.547 E982.32593
G1 X64.978 Y122.257 E989.31720
G1 X64.978 Y123.142 E989.39779
G1 X118.383 Y176.547 E996.27509
G1 X117.498 Y176.547 E996.35568
G1 X64.978 Y124.027 E1003.11901
G1 X64.978 Y124.912 E1003.19960
G1 X116.613 Y176.547 E1009.84897
G1 X115.728 Y176.547 E1009.92956
G1 X64.978 Y125.797 E1016.46496
G1 X64.978 Y126.682 E1016.54554
G1 X114.843 Y176.547 E1022.96698
G1 X113.958 Y176.547 E1023.04756
G1 X64.978 Y127.567 E1029.35503
G1 X64.978 Y128.452 E1029.43562
G1 X113.073 Y176.547 E1035.62912
G1 X112.188 Y176.547 E1035.70971
G1 X64.978 Y129.337 E1041.78924
G1 X64.978 Y130.222 E1041.86982
G1 X111.303 Y176.547 E1047.83539
G1 X110.418 Y176.547 E1047.91598
G1 X64.978 Y131.107 E1053.76758
G1 X64.978 Y131.992 E1053.84816
G1 X109.533 Y176.547 E1059.58580
G1 X108.648 Y176.547 E1059.66638
G1 X64.978 Y132.877 E1065.29005
G1 X64.978 Y133.762 E1065.37063
G1 X107.763 Y176.547 E1070.88033
G1 X106.878 Y176.547 E1070.96092
G1 X64.978 Y134.647 E1076.35665
G1 X64.978 Y135.532 E1076.43724
G1 X105.993 Y176.547 E1081.71900
G1 X105.108 Y176.547 E1081.79959
G1 X64.978 Y136.417 E1086.96738
G1 X64.978 Y137.302 E1087.04797
G1 X104.223 Y176.547 E1092.10180
G1 X103.338 Y176.547 E1092.18239
G1 X64.978 Y138.187 E1097.12225
G1 X64.978 Y139.072 E1097.20284
G1 X102.453 Y176.547 E1102.02873
G1 X101.568 Y176.547 E1102.10932
G1 X64.978 Y139.957 E1106.82125
G1 X64.978 Y140.842 E1106.90183
G1 X100.683 Y176.547 E1111.49979
G1 X99.798 Y176.547 E1111.58038
G1 X64.978 Y141.727 E1116.06438
G1 X64.978 Y142.612 E1116.14496
G1 X98.913 Y176.547 E1120.51499
G1 X98.028 Y176.547 E1120.59558
G1 X64.978 Y143.497 E1124.85164
G1 X64.978 Y144.382 E1124.93222
G1 X97.143 Y176.547 E1129.07432
G1 X96.258 Y176.547 E1129.15490
G1 X64.978 Y145.267 E1133.18303
G1 X64.978 Y146.152 E1133.26362
G1 X95.373 Y176.547 E1137.17778
G1 X94.488 Y176.547 E1137.25836
G1 X64.978 Y147.037 E1141.05855
G1 X64.978 Y147.922 E1141.13914
G1 X93.603 Y176.547 E1144.82537
G1 X92.718 Y176.547 E1144.90595
G1 X64.978 Y148.807 E1148.47821
G1 X64.978 Y149.692 E1148.55880
G1 X91.833 Y176.547 E1152.01709
G1 X90.948 Y176.547 E1152.09768
G1 X64.978 Y150.577 E1155.44200
G1 X64.978 Y151.462 E1155.52259
G1 X90.063 Y176.547 E1158.75294
G1 X89.178 Y176.547 E1158.83353
G1 X64.978 Y152.347 E1161.94992
G1 X64.978 Y153.232 E1162.03051
G1 X88.293 Y176.547 E1165.03293
G1 X87.408 Y176.547 E1165.11352
G1 X64.978 Y154.117 E1168.00197
G1 X64.978 Y155.002 E1168.08256
G1 X86.523 Y176.547 E1170.85705
G1 X85.638 Y176.547 E1170.93763
G1 X64.978 Y155.887 E1173.59815
G1 X64.978 Y156.772 E1173.67874
G1 X84.753 Y176.547 E1176.22530
G1 X83.868 Y176.547 E1176.30588
G1 X64.978 Y157.657 E1178.73847
G1 X64.978 Y158.542 E1178.81906
G1 X82.983 Y176.547 E1181.13768
G1 X82.098 Y176.547 E1181.21826
G1 X64.978 Y159.427 E1183.42292
G1 X64.978 Y160.312 E1183.50350
G1 X81.213 Y176.547 E1185.59419
G1 X80.328 Y176.547 E1185.67478
G1 X64.978 Y161.197 E1187.65150
G1 X64.978 Y162.082 E1187.73208
G1 X79.443 Y176.547 E1189.59483
G1 X78.558 Y176.547 E1189.67542
G1 X64.978 Y162.967 E1191.42421
G1 X64.978 Y163.852 E1191.50479
G1 X77.673 Y176.547 E1193.13961
G1 X76.788 Y176.547 E1193.22020
G1 X64.978 Y164.737 E1194.74105
G1 X64.978 Y165.622 E1194.82164
G1 X75.903 Y176.547 E1196.22852
G1 X75.018 Y176.547 E1196.30911
G1 X64.978 Y166.507 E1197.60202
G1 X64.978 Y167.392 E1197.68261
G1 X74.133 Y176.547 E1198.86156
G1 X73.248 Y176.547 E1198.94215
G1 X64.978 Y168.277 E1200.00713
G1 X64.978 Y169.162 E1200.08772
G1 X72.363 Y176.547 E1201.03873
G1 X71.478 Y176.547 E1201.11932
G1 X64.978 Y170.047 E1201.95637
G1 X64.978 Y170.932 E1202.03695
G1 X70.593 Y176.547 E1202.76003
G1 X69.708 Y176.547 E1202.84062
G1 X64.978 Y171.817 E1203.44974
G1 X64.978 Y172.702 E1203.53032
G1 X68.823 Y176.547 E1204.02547
G1 X67.938 Y176.547 E1204.10606
G1 X64.978 Y173.587 E1204.48724
G1 X64.978 Y174.472 E1204.56782
G1 X67.053 Y176.547 E1204.83504
G1 X66.168 Y176.547 E1204.91562
G1 X64.978 Y175.357 E1205.06887
G1 X64.978 Y176.242 E1205.14946
G1 X65.283 Y176.547 E1205.18874
M104 S210 ; set temperature
G1 Z0.450 F7800.000
G1 X155.623 Y177.088 F7800.000
G1 X64.377 Y177.088 E1207.68695 F2400.000
G1 X64.377 Y92.805 E1209.99450
G1 X155.623 Y92.805 E1212.49272
G1 X155.623 Y177.028 E1214.79863
G1 X156.281 Y177.746 F7800.000
G1 X63.719 Y177.746 E1217.33290 F2400.000
G1 X63.719 Y92.147 E1219.67652
G1 X156.281 Y92.147 E1222.21079
G1 X156.281 Y177.686 E1224.55276
G1 X156.800 Y178.265 F7800.000
G1 X63.200 Y178.265 E1226.02582 F1200.000
G1 X63.200 Y91.628 E1227.38930
G1 X156.800 Y91.628 E1228.86236
G1 X156.800 Y178.205 E1230.22489
G1 X156.454 Y178.065 F7800.000
G1 X154.903 Y176.688 F7800.000
G1 X155.223 Y176.368 E1230.23726 F1800.000
G1 X155.223 Y175.436 E1230.26278
G1 X153.972 Y176.688 E1230.31123
G1 X153.040 Y176.688 E1230.33675
G1 X155.223 Y174.505 E1230.42130
G1 X155.223 Y173.573 E1230.44682
G1 X152.108 Y176.688 E1230.56745
G1 X151.177 Y176.688 E1230.59297
G1 X155.223 Y172.641 E1230.74969
G1 X155.223 Y171.710 E1230.77520
G1 X150.245 Y176.688 E1230.96801
G1 X149.314 Y176.688 E1230.99353
G1 X155.223 Y170.778 E1231.22242
G1 X155.223 Y169.846 E1231.24794
G1 X148.382 Y176.688 E1231.51292
G1 X147.450 Y176.688 E1231.53844
G1 X155.223 Y168.915 E1231.83951
G1 X155.223 Y167.983 E1231.86502
G1 X146.519 Y176.688 E1232.20218
G1 X145.587 Y176.688 E1232.22770
G1 X155.223 Y167.051 E1232.60094
G1 X155.223 Y166.120 E1232.62646
G1 X144.655 Y176.688 E1233.03579
G1 X143.724 Y176.688 E1233.06130
G1 X155.223 Y165.188 E1233.50672
G1 X155.223 Y164.256 E1233.53224
G1 X142.792 Y176.688 E1234.01374
G1 X141.860 Y176.688 E1234.03926
G1 X155.223 Y163.325 E1234.55685
G1 X155.223 Y162.393 E1234.58237
G1 X140.929 Y176.688 E1235.13605
G1 X139.997 Y176.688 E1235.16156
G1 X155.223 Y161.461 E1235.75133
G1 X155.223 Y160.530 E1235.77685
